X:1
T:Devil's Dream
M:4/4
L:1/8
K:A
(3 (efg)|"A"agae agae | agae fedc | "Bm"dfBf dfBf | dfBf "E"agfe |!
"A"agae agae | agae fedc | "D"dfed "A"cBA(F|1"E"EF)AB "A"A4:|2"E"EF)AB "A"A2 e2|]!
"A"ceAe ceAe | ceAe fedc | "Bm"dfBf dfBf | dfBf "E"agfe |!
"A"ceAe ceAe | ceAe fedc | "D"dfed "A"cBA(F|1"E"EF)AB "A"A4:|2"E"EF)AB "A"A2|]!
